X:1
T:Caledonia (Garbutt), 76.76.78.76
T:Caledonia (Garbutt), 76.76.78.76
T:Clarkson Garbutt, 1877
T:Public Domain Courtesy of the Cyber Hymnal™
C:Clarkson Garbutt, 1877
Z:Public Domain
Z:Courtesy of the Cyber Hymnal™
%%score ( 1 2 ) ( 3 4 )
L:1/8
Q:1/4=108
M:4/4
K:G
V:1 treble 
V:2 treble 
V:3 bass 
V:4 bass 
V:1
 [DB]3 [CA] [B,G]2 [DF]2 | [DE]2 [CE]2 [B,D]2 [DG]2 | [Ac]2 [GB]2 [GA]3 [GA] x | [FA]8 | %4
 B3 z A [EG]2 [=DF]2 | E2 [CE]2 [C^D]2 E2 | [EB]3 [EA] [EG]2 [^DF]2 | [B,E]4 [CE]3 [CE] | %8
 [DG]2 G2 [Gc]2 [Fc]2 | [GB]2 [GB]2 e3 z d | [Ec]2 [Fd]2 e3 z d | [Gd]4 d3 z c | %12
 [GB]2 [DA]2 [DG]2 [^CG]2 | [DF]2 [DG]2 c2 [GB]2 | A3 z A G4 |] %15
V:2
 x8 | x8 | x9 | x8 | D2 ^D2 x5 | E2 x2 (B,E) x2 | x8 | x8 | x2 (D>G) x4 | x4 ^G2 E2 x | %10
 x4 G2 F2 x | x4 F2 A2 x | x8 | x4 (EF) x2 | G2 F2 G4 x |] %15
V:3
 [G,,G,]2 [D,F,]2 [E,G,]2 [B,,G,]2 | [C,G,]2 [E,G,]2 G,2 [G,B,]2 | [F,D]2 [G,D]2 E3 z E | [D,D]8 | %4
 [G,B,]2 [F,B,]2 [E,B,]2 [B,,A,]2 x | [C,G,]2 [A,,F,]2 [B,,F,]2 [E,G,]2 | %6
 [G,,B,]3 [A,,C] [B,,B,]2 [B,,A,]2 | [E,G,]4 [C,G,]3 [C,G,] | [C,G,]2 [B,,G,]2 [A,,E]2 [D,D]2 | %9
 [G,D]2 [=F,D]2 E3 z B, | [A,C]2 [A,C]2 [G,C]2 [G,A,]2 x | [G,B,]4 D3 z D | %12
 [E,D]2 [D,D]2 [E,B,]2 [E,G,]2 | [D,A,]2 [B,,B,]2 [A,,C]2 ([B,,D][C,E]) | %14
 (A,B,) [D,C]2 [G,,B,]4 x |] %15
V:4
 x8 | x4 G,2 x2 | x4 C,2 ^C,2 x | x8 | x9 | x8 | x8 | x8 | x8 | x4 E,2 ^G,2 x | x9 | x4 D,2 F,2 x | %12
 x8 | x8 | D,2 x7 |] %15

